SVG_Azure_All/Shared Dashboard.svg

<?xml version="1.0" encoding="UTF-8" standalone="no"?>
<!-- Generated by Microsoft Visio, SVG Export Shared Dashboard.svg Page-1 -->

<svg
   xmlns:dc="http://purl.org/dc/elements/1.1/"
   xmlns:cc="http://creativecommons.org/ns#"
   xmlns:rdf="http://www.w3.org/1999/02/22-rdf-syntax-ns#"
   xmlns:svg="http://www.w3.org/2000/svg"
   xmlns="http://www.w3.org/2000/svg"
   xmlns:sodipodi="http://sodipodi.sourceforge.net/DTD/sodipodi-0.dtd"
   xmlns:inkscape="http://www.inkscape.org/namespaces/inkscape"
   width="0.7873624in"
   height="0.55118066in"
   viewBox="0 0 56.690001 39.684875"
   xml:space="preserve"
   class="st3"
   version="1.1"
   id="svg50"
   sodipodi:docname="Shared Dashboard.svg"
   style="font-size:12px;overflow:visible;color-interpolation-filters:sRGB;fill:none;fill-rule:evenodd;stroke-linecap:square;stroke-miterlimit:3"
   inkscape:version="0.92.5 (2060ec1f9f, 2020-04-08)"><metadata
   id="metadata54"><rdf:RDF><cc:Work
       rdf:about=""><dc:format>image/svg+xml</dc:format><dc:type
         rdf:resource="http://purl.org/dc/dcmitype/StillImage" /></cc:Work></rdf:RDF></metadata><sodipodi:namedview
   pagecolor="#ffffff"
   bordercolor="#666666"
   borderopacity="1"
   objecttolerance="10"
   gridtolerance="10"
   guidetolerance="10"
   inkscape:pageopacity="0"
   inkscape:pageshadow="2"
   inkscape:window-width="640"
   inkscape:window-height="480"
   id="namedview52"
   showgrid="false"
   inkscape:zoom="1.6434028"
   inkscape:cx="37.795396"
   inkscape:cy="26.446707"
   inkscape:window-x="0"
   inkscape:window-y="0"
   inkscape:window-maximized="0"
   inkscape:current-layer="svg50" />
	<style
   type="text/css"
   id="style2">
	<![CDATA[
		.st1 {fill:url(#grad0-6);stroke:none;stroke-linecap:butt;stroke-width:34}
		.st2 {fill:#ffffff;stroke:none;stroke-linecap:butt;stroke-width:34}
		.st3 {fill:none;fill-rule:evenodd;font-size:12px;overflow:visible;stroke-linecap:square;stroke-miterlimit:3}
	]]>
	</style>

	<defs
   id="Patterns_And_Gradients">
		<linearGradient
   id="grad0-6"
   x1="0"
   y1="81.294183"
   x2="47.431418"
   y2="81.294183"
   gradientTransform="scale(1.1951994,0.8366805)"
   gradientUnits="userSpaceOnUse">
			<stop
   offset="0.09"
   stop-color="#6cc6b9"
   stop-opacity="1"
   id="stop4" />
			<stop
   offset="0.465"
   stop-color="#6ac4b7"
   stop-opacity="1"
   id="stop6" />
			<stop
   offset="0.635"
   stop-color="#62bdb0"
   stop-opacity="1"
   id="stop8" />
			<stop
   offset="0.77"
   stop-color="#56b1a4"
   stop-opacity="1"
   id="stop10" />
			<stop
   offset="0.88"
   stop-color="#439f93"
   stop-opacity="1"
   id="stop12" />
			<stop
   offset="0.975"
   stop-color="#2c897d"
   stop-opacity="1"
   id="stop14" />
			<stop
   offset="1"
   stop-color="#258277"
   stop-opacity="1"
   id="stop16" />
		</linearGradient>
	</defs>
	<g
   id="g48"
   transform="translate(-34,-34.00165)">
		<title
   id="title20">Page-1</title>
		<g
   id="group1536-1"
   transform="translate(34,-34.0157)">
			<title
   id="title22">Shared Dashboard</title>
			<g
   id="group1537-2">
				<title
   id="title24">g10</title>
				<g
   id="shape1538-3">
					<title
   id="title26">path2</title>
					<path
   d="m 1.73,68.02 h 53.22 a 1.64724,1.62786 0 0 1 1.74,1.53 v 36.62 a 1.64724,1.62786 0 0 1 -1.72,1.53 H 1.73 A 1.64724,1.62786 0 0 1 0,106.17 V 69.55 a 1.64724,1.62786 0 0 1 1.73,-1.53 z"
   class="st1"
   id="path28"
   inkscape:connector-curvature="0"
   style="fill:url(#grad0-6);stroke:none;stroke-width:34;stroke-linecap:butt" />
				</g>
				<g
   id="shape1539-7"
   transform="translate(22.9575,-20.1507)">
					<title
   id="title31">path4</title>
					<path
   d="m 0.49,92.84 h 25.48 a 0.48189,0.47622 0 0 1 0.497638,0.460658 L 26.47,107.24 a 0.48189,0.47622 0 0 1 -0.497638,0.46066 L 0.49,107.7 a 0.47874,0.473108 0 0 1 -0.494488,-0.46066 L 0,93.3 a 0.47874,0.473108 0 0 1 0.494488,-0.460658 z"
   class="st2"
   id="path33"
   inkscape:connector-curvature="0"
   style="fill:#ffffff;stroke:none;stroke-width:34;stroke-linecap:butt" />
				</g>
				<g
   id="shape1540-9"
   transform="translate(7.03307,-5.10147)">
					<title
   id="title36">rect6</title>
					<path
   d="m 0,107.24 a 0.469302,0.463781 -180 0 0 0.469291,0.46377 L 10.26,107.7 a 0.469302,0.463781 -180 0 0 0.469291,-0.46377 L 10.72,78.25 A 0.469302,0.463781 -180 0 0 10.250709,77.78623 L 0.47,77.79 A 0.469302,0.463781 -180 0 0 7.09e-4,78.25377 Z"
   class="st2"
   id="path38"
   inkscape:connector-curvature="0"
   style="fill:#ffffff;stroke:none;stroke-width:34;stroke-linecap:butt" />
				</g>
				<g
   id="shape1541-11"
   transform="translate(22.9575,-5.09836)">
					<title
   id="title41">path8</title>
					<path
   d="M 16.12,96.88 H 26 a 0.466142,0.460658 0 0 1 0.475591,0.448208 L 26.47,107.25 a 0.466142,0.460658 0 0 1 -0.475591,0.45132 L 16.12,107.7 a 0.466142,0.460658 0 0 1 -0.472441,-0.45132 L 15.64,97.32 a 0.462992,0.457545 0 0 1 0.472441,-0.43887 z m -15.67,0 h 9.73 a 0.466142,0.460658 0 0 1 0.466142,0.460658 L 10.64,107.24 a 0.466142,0.460658 0 0 1 -0.466142,0.46066 L 0.45,107.7 a 0.453543,0.448208 0 0 1 -0.453543,-0.44821 L 0,97.32 a 0.453543,0.448208 0 0 1 0.453543,-0.43887 z"
   class="st2"
   id="path43"
   inkscape:connector-curvature="0"
   style="fill:#ffffff;stroke:none;stroke-width:34;stroke-linecap:butt" />
				</g>
			</g>
		</g>
	</g>
</svg>

<?xml version="1.0" encoding="UTF-8" standalone="no"?>
<!DOCTYPE svg PUBLIC "-//W3C//DTD SVG 1.1//EN" "http://www.w3.org/Graphics/SVG/1.1/DTD/svg11.dtd">
<!-- Generated by Microsoft Visio, SVG Export Shared Dashboard.svg Page-1 -->
<svg xmlns="http://www.w3.org/2000/svg" xmlns:xlink="http://www.w3.org/1999/xlink" xmlns:ev="http://www.w3.org/2001/xml-events"
		width="1.73185in" height="1.49588in" viewBox="0 0 124.693 107.703" xml:space="preserve" color-interpolation-filters="sRGB"
		class="st3">
	<style type="text/css">
	<![CDATA[
		.st1 {fill:url(#grad0-6);stroke:none;stroke-linecap:butt;stroke-width:34}
		.st2 {fill:#ffffff;stroke:none;stroke-linecap:butt;stroke-width:34}
		.st3 {fill:none;fill-rule:evenodd;font-size:12px;overflow:visible;stroke-linecap:square;stroke-miterlimit:3}
	]]>
	</style>

	<defs id="Patterns_And_Gradients">
		<linearGradient id="grad0-6" x1="0" y1="0" x2="1" y2="0" gradientTransform="rotate(90 0.5 0.5)">
			<stop offset="0.09" stop-color="#6cc6b9" stop-opacity="1"/>
			<stop offset="0.465" stop-color="#6ac4b7" stop-opacity="1"/>
			<stop offset="0.635" stop-color="#62bdb0" stop-opacity="1"/>
			<stop offset="0.77" stop-color="#56b1a4" stop-opacity="1"/>
			<stop offset="0.88" stop-color="#439f93" stop-opacity="1"/>
			<stop offset="0.975" stop-color="#2c897d" stop-opacity="1"/>
			<stop offset="1" stop-color="#258277" stop-opacity="1"/>
		</linearGradient>
	</defs>
	<g>
		<title>Page-1</title>
		<g id="group1521-1" transform="translate(34,-34.0157)">
			<title>Shared Dashboard</title>
			<g id="group1522-2">
				<title>g10</title>
				<g id="shape1523-3">
					<title>path2</title>
					<path d="M1.73 68.02 L54.95 68.02 A1.64724 1.62786 0 0 1 56.69 69.55 L56.69 106.17 A1.64724 1.62786 0 0 1 54.97
								 107.7 L1.73 107.7 A1.64724 1.62786 0 0 1 -0 106.17 L0 69.55 A1.64724 1.62786 0 0 1 1.73 68.02 Z"
							class="st1"/>
				</g>
				<g id="shape1524-7" transform="translate(22.9575,-20.1507)">
					<title>path4</title>
					<path d="M0.49 92.84 L25.97 92.84 a0.48189 0.47622 0 0 1 0.497638 0.460658 L26.47 107.24 a0.48189 0.47622 0 0
								 1 -0.497638 0.460658 L0.49 107.7 a0.47874 0.473108 0 0 1 -0.494488 -0.460658 L0 93.3 a0.47874 0.473108
								 0 0 1 0.494488 -0.460658 Z" class="st2"/>
				</g>
				<g id="shape1525-9" transform="translate(7.03307,-5.10147)">
					<title>rect6</title>
					<path d="M0 107.24 a0.469302 0.463781 -180 0 0 0.469291 0.46377 L10.26 107.7 a0.469302 0.463781 -180 0 0 0.469291
								 -0.46377 L10.72 78.25 a0.469302 0.463781 -180 0 0 -0.469291 -0.46377 L0.47 77.79 a0.469302 0.463781
								 -180 0 0 -0.469291 0.46377 L0 107.24 Z" class="st2"/>
				</g>
				<g id="shape1526-11" transform="translate(22.9575,-5.09836)">
					<title>path8</title>
					<path d="M16.12 96.88 L26 96.88 a0.466142 0.460658 0 0 1 0.475591 0.448208 L26.47 107.25 a0.466142 0.460658 0
								 0 1 -0.475591 0.45132 L16.12 107.7 a0.466142 0.460658 0 0 1 -0.472441 -0.45132 L15.64 97.32 a0.462992
								 0.457545 0 0 1 0.472441 -0.43887 ZM0.45 96.88 L10.18 96.88 a0.466142 0.460658 0 0 1 0.466142 0.460658
								 L10.64 107.24 a0.466142 0.460658 0 0 1 -0.466142 0.460658 L0.45 107.7 a0.453543 0.448208 0 0 1 -0.453543
								 -0.448208 L0 97.32 a0.453543 0.448208 0 0 1 0.453543 -0.43887 Z" class="st2"/>
				</g>
			</g>
		</g>
	</g>
</svg>
